X: 41495
T: Uaine Bheag
R: waltz
M: 3/4
K: Bminor
|:dB F2 E2|DC B,2 CB,|A,3 B, CE|A,2 A,C B,A,|
G,2 A,/B,/C DE|FD CD FD|GF GA B/c/d|c2 cA Bc|
dB F2 E2|DC B,2 CB,|A,2 A,B, CE|A3 c BA|
BA G2 B/c/d|BA GA Bd|cA ^GA cA|d2 eA ef|
eA fA f/g/a|g2 gf fe|f2 B3 c|BA F3 ^G|
AE CE AE|BE EB Bd|cA ^GA cA|d2 eA ef|
eA fA ^ga|g2 gf fe|f2 B3 c|BA F3 ^G|
AE CE AF|GD B,D GF|GF GA B/c/d|1 c2 cA Bc:|2 c2 cA Bc|dB F2 E2|DC B,6||

